X:9771
T:Logerian Fancy,The. JC.004
M:2/4
L:1/16
Q:80
S:John Clare,Poet,Helpston. (1793-1864)
R:Misc.
O:England
A:Northamptonshire
N:MS key sig is D.
Z:P Headford
K:G
Bc|dBG2 Gce2|dBG2 G2Bc|dBG2 Gce2|eAA2 A2Bc|!
dBG2 Gce2|dBg2 g2fe|edBG dcAF|G2B2G2|!
|dc|(cB)(BA) (A^G)(BE)|(EA)(Ac) c2(cB)|(BA)(AG) (GF)(AD)|(DG)(GB) B2GA|!
Bcde dgGA|Bcde dggf|fedc BAdF|G2B2G2|]


